static/images/mobile/copyright/wikipedia-tagline-ary.svg

<svg width="94" height="18" viewBox="0 0 94 18" fill="none" xmlns="http://www.w3.org/2000/svg">
<path fill-rule="evenodd" clip-rule="evenodd" d="M6.04001 2.76141C6.19394 2.93382 6.29553 3.1801 6.34479 3.50026L6.66805 7.0744C6.69266 7.36377 6.71729 7.68393 6.74191 8.0349C6.76654 8.38583 6.77885 8.67522 6.77885 8.90303C6.77885 9.15546 6.76654 9.41714 6.74191 9.68805C6.71729 9.95895 6.6588 10.2884 6.56644 10.6762C6.48024 11.058 6.32631 11.452 6.10466 11.8584C5.88918 12.2586 5.50436 12.7973 4.95023 13.4746C5.97229 13.1852 6.79117 12.548 7.40688 11.5629C8.02257 10.5716 8.33041 9.81119 8.33041 9.28168C8.33041 8.61673 8.24115 7.647 8.06259 6.3725C7.8902 5.09799 7.804 4.05132 7.804 3.23242C7.804 2.82607 7.85017 2.45357 7.94254 2.11493C8.04105 1.77629 8.13339 1.45613 8.21959 1.15443C8.25653 0.963577 8.20728 0.72345 8.07182 0.434067C7.94254 0.144684 7.71472 0 7.3884 0C6.9451 0 6.51718 0.230896 6.10466 0.692657C5.6983 1.14828 5.52591 1.65315 5.58748 2.20729C5.74139 2.39815 5.89224 2.58287 6.04001 2.76141ZM37.3669 11.7291C37.6255 10.7809 37.7547 9.82657 37.7547 8.86607C37.7547 8.45349 37.724 8.01326 37.6624 7.54533C37.6008 7.07739 37.5485 6.70181 37.5054 6.41859C37.4684 6.13536 37.3792 5.6028 37.2375 4.82086C37.1021 4.03891 37.0344 3.33394 37.0344 2.70593C37.0221 2.61357 37.0313 2.45041 37.0621 2.21645C37.0929 1.98247 37.1083 1.79776 37.1083 1.66231C37.1083 1.26826 36.9974 0.911163 36.7758 0.590988C36.5603 0.270828 36.3386 0.110748 36.1108 0.110748C35.7599 0.110748 35.4151 0.270828 35.0764 0.590988C34.744 0.911163 34.5777 1.29906 34.5777 1.75467C34.5777 2.2226 34.7625 2.76442 35.1319 3.38011C35.5074 3.98967 35.7229 4.4268 35.7784 4.69156C35.8338 4.95631 35.9169 5.33496 36.0277 5.82753C36.1447 6.31393 36.2032 6.87422 36.2032 7.50839C36.2032 8.03789 36.1878 8.60741 36.157 9.21695C36.1262 9.82649 36.0924 10.3837 36.0554 10.8886C35.9631 10.827 35.8399 10.7501 35.686 10.6577C35.5382 10.5592 35.3843 10.51 35.2242 10.51H34.0508C33.4968 10.4607 32.9121 10.3837 32.2966 10.2791C31.687 10.1683 31.1914 9.95898 30.8097 9.65114C30.4279 9.34328 29.8738 8.69064 29.1473 7.69321C28.4207 6.69577 27.5341 6.19705 26.4874 6.19705C25.9333 6.19705 25.4654 6.31711 25.0836 6.55724C24.7081 6.79735 24.5203 7.18217 24.5203 7.71167C24.5203 8.06877 24.588 8.38585 24.7235 8.6629C24.8651 8.93999 25.1698 9.07854 25.6378 9.07854C25.8656 9.07854 26.0688 8.99542 26.2473 8.82918C26.432 8.66293 26.589 8.5244 26.7183 8.41357C27.1308 8.59212 27.5464 8.76758 27.9651 8.93997C28.4946 9.20473 28.7594 9.66037 28.7594 10.3069C28.1129 10.3684 27.4418 10.4207 26.746 10.4638C26.0564 10.5069 25.333 10.5285 24.5757 10.5285L24.4002 10.524V10.51H23.8473L23.8461 10.51L23.4859 10.51C23.4736 10.4485 23.3289 9.81432 23.0518 8.60754C22.627 7.43156 21.9836 6.84357 21.1216 6.84357C20.4936 6.84357 19.9764 7.26222 19.57 8.09958C19.1698 8.93694 18.9697 9.59572 18.9697 10.076C18.9697 10.7471 19.1729 11.2827 19.5793 11.683C19.9918 12.077 20.6844 12.274 21.6573 12.274C21.6573 13.2407 21.214 14.2289 20.3273 15.2386C19.4469 16.2484 18.5511 16.7533 17.6398 16.7533C17.4674 16.7411 17.1904 16.7318 16.8086 16.7255C16.4207 16.7193 15.9405 16.6455 15.3679 16.5039C14.7984 16.3691 14.2807 15.7838 13.8147 14.7477C14.1018 14.3496 14.4041 13.8698 14.7214 13.3084C15.3679 12.1755 15.6911 11.1165 15.6911 10.1313C15.6911 9.20164 15.4756 8.392 15.0446 7.70241C14.6198 7.00667 14.1149 6.6588 13.53 6.6588C12.8035 6.6588 12.4402 7.12366 12.4402 8.05336C12.4402 8.63213 12.7327 9.04156 13.3176 9.28168C13.9025 9.5218 14.2011 9.70345 14.2134 9.82658C14.2258 9.94356 14.2319 10.0913 14.2319 10.2699C14.2319 11.2843 13.9138 12.2409 13.2777 13.1397L13.2437 13.0405C13.1021 12.6526 12.9574 12.4218 12.8096 12.3479L12.7265 12.9482C12.7597 13.2282 12.7948 13.4898 12.8316 13.7329C12.3125 14.3888 11.8372 14.8629 11.4059 15.1555C10.8702 15.5249 10.2052 15.8112 9.41098 16.0144C8.61673 16.2175 7.78554 16.3191 6.91739 16.3191C5.29195 16.3191 3.9651 15.9682 2.93689 15.2663C1.90868 14.5644 1.02821 13.6101 0.295532 12.4033L0 12.1632C0.184708 13.6962 1.04053 14.9769 2.56747 16.0051C4.09441 17.0333 5.69522 17.5475 7.36993 17.5475C8.52745 17.5475 9.56798 17.3751 10.4915 17.0303C11.4212 16.6916 12.2524 16.2514 12.9851 15.7096C13.0654 15.6369 13.1472 15.5563 13.2305 15.4676C13.2559 15.5349 13.2819 15.5971 13.3084 15.6542C13.5423 16.1591 13.8625 16.6055 14.2689 16.9933C14.6691 17.3874 15.02 17.6521 15.3217 17.7876C15.6234 17.9292 16.0452 18 16.587 18C17.8492 18 18.8958 17.7599 19.7271 17.2796C20.5582 16.7994 21.2417 16.1683 21.7773 15.3864C22.313 14.6044 22.8702 13.5854 23.449 12.3294H23.8461H23.8528H24.4002V12.3144L24.5203 12.3111C25.136 12.3111 25.8132 12.2865 26.5521 12.2372C27.2909 12.1879 28.55 12.1633 30.3294 12.1633C30.9205 12.1633 31.567 12.191 32.2689 12.2464C32.9769 12.3017 33.371 12.3294 33.451 12.3294H34.0513L34.7625 12.3294C34.9287 12.3294 35.1349 12.4648 35.3812 12.7357C35.6275 13.0067 35.7999 13.1421 35.8984 13.1421C36.6188 13.1421 37.1083 12.6711 37.3669 11.7291ZM93.5187 11.7291C93.7773 10.7809 93.9066 9.82657 93.9066 8.86607C93.9066 8.45349 93.8758 8.01326 93.8143 7.54533C93.7527 7.07739 93.7004 6.70181 93.6572 6.41859C93.6203 6.13536 93.531 5.6028 93.3894 4.82086C93.254 4.03891 93.1862 3.33394 93.1862 2.70593C93.1739 2.61357 93.1832 2.45041 93.214 2.21645C93.2447 1.98247 93.2601 1.79776 93.2601 1.66231C93.2601 1.26826 93.1493 0.911163 92.9277 0.590988C92.7122 0.270828 92.4905 0.110748 92.2627 0.110748C91.9118 0.110748 91.567 0.270828 91.2283 0.590988C90.8958 0.911163 90.7296 1.29906 90.7296 1.75467C90.7296 2.2226 90.9143 2.76442 91.2837 3.38011C91.6593 3.98967 91.8748 4.4268 91.9302 4.69156C91.9856 4.95631 92.0688 5.33496 92.1796 5.82753C92.2966 6.31393 92.3551 6.87422 92.3551 7.50839C92.3551 8.03789 92.3397 8.60741 92.3089 9.21695C92.2781 9.82649 92.2442 10.3837 92.2073 10.8886C92.1149 10.827 91.9918 10.7501 91.8379 10.6577C91.6901 10.5592 91.5362 10.51 91.3761 10.51L90.2124 10.51L89.7137 10.51L89.0026 10.51C88.8856 10.51 88.6393 10.1652 88.2637 9.47563C87.8881 8.77989 87.2971 8.43202 86.4905 8.43202C85.9179 8.43202 85.4777 8.64444 85.1698 9.06927C84.862 9.48795 84.6249 9.96819 84.4587 10.51H82.8794L82.4823 10.51C82.47 10.4485 82.3253 9.81432 82.0482 8.60754C81.6234 7.43156 80.98 6.84357 80.118 6.84357C79.49 6.84357 78.9728 7.26222 78.5664 8.09958C78.1662 8.93694 77.9661 9.59572 77.9661 10.076C77.9661 10.7471 78.1693 11.2827 78.5757 11.683C78.9882 12.077 79.6809 12.274 80.6537 12.274C80.6537 13.2407 80.2104 14.2289 79.3237 15.2386C78.4433 16.2484 77.5475 16.7533 76.6362 16.7533C76.4638 16.7411 76.1868 16.7318 75.805 16.7255C75.4171 16.7193 74.9369 16.6455 74.3643 16.5039C73.7917 16.3684 73.2714 15.7773 72.8035 14.7306C72.5634 13.998 72.3756 13.4346 72.2401 13.0405C72.0985 12.6526 71.9538 12.4218 71.806 12.3479L71.7229 12.9482C71.8769 14.2473 72.0708 15.1493 72.3048 15.6542C72.5387 16.1591 72.8589 16.6055 73.2653 16.9933C73.6655 17.3874 74.0164 17.6521 74.3181 17.7876C74.6198 17.9292 75.0416 18 75.5834 18C76.8456 18 77.8923 17.7599 78.7234 17.2796C79.5546 16.7994 80.2381 16.1683 80.7737 15.3864C81.3094 14.6044 81.8666 13.5854 82.4454 12.3294H82.8794H83.3966V12.311H83.8953H84.2463C84.4002 12.311 84.5049 12.3171 84.5603 12.3294C84.6342 12.3294 84.8435 12.5972 85.1883 13.1329C85.5393 13.6686 86.0718 13.9364 86.786 13.9364C87.4325 13.9364 87.922 13.6686 88.2545 13.1329C88.587 12.5972 88.8363 12.3294 89.0026 12.3294L89.7137 12.3294L90.2124 12.3294L90.9143 12.3294C91.0806 12.3294 91.2868 12.4648 91.5331 12.7357C91.7794 13.0067 91.9518 13.1421 92.0503 13.1421C92.7707 13.1421 93.2601 12.6711 93.5187 11.7291ZM86.7122 12.1816C86.3612 12.1816 86.1396 11.9169 86.0472 11.3874C86.0226 11.2581 86.0102 11.1627 86.0102 11.1011C86.0102 10.861 86.0564 10.6547 86.1488 10.4823C86.2473 10.3038 86.3797 10.2145 86.5459 10.2145C86.7614 10.2145 86.9215 10.3099 87.0262 10.5008C87.1308 10.6855 87.1955 10.9102 87.2201 11.175C87.2201 11.4767 87.1893 11.7199 87.1278 11.9046C87.0662 12.0893 86.9277 12.1816 86.7122 12.1816ZM79.7763 9.42023C79.6655 9.51869 79.6101 9.6449 79.6101 9.79887C79.6101 9.97127 79.6901 10.1375 79.8502 10.2976C80.0164 10.4515 80.2258 10.5285 80.4782 10.5285C80.5829 10.5285 80.6752 10.5193 80.7553 10.5007C80.8353 10.4823 80.8753 10.393 80.8753 10.2329C80.8753 9.88812 80.7799 9.65108 80.589 9.52179C80.4043 9.38634 80.2411 9.3186 80.0995 9.3186C79.9887 9.3186 79.881 9.35249 79.7763 9.42023ZM73.1544 12.08C73.3823 12.3817 73.5608 12.5202 73.6901 12.4957L73.6901 12.4958C74.5213 12.348 75.0754 12.0186 75.3525 11.5076C75.6296 10.9966 75.7681 10.4763 75.7681 9.94681C75.7681 9.87291 75.7619 9.78362 75.7496 9.67896C75.7496 9.14946 75.5403 8.57378 75.1216 7.95192C74.7091 7.33006 74.3828 7.01913 74.1427 7.01913C73.7609 7.01913 73.4284 7.17307 73.1452 7.48091C72.862 7.78876 72.7204 8.06892 72.7204 8.32137C72.7204 8.52455 72.822 8.72772 73.0252 8.93091C73.2283 9.12793 73.4561 9.22644 73.7086 9.22644C74.0103 9.22644 74.1919 9.24487 74.2535 9.28177C74.315 9.31871 74.3458 9.4326 74.3458 9.62347C74.3643 9.66035 74.3735 9.70959 74.3735 9.77116V9.96512C74.3735 10.0513 74.3551 10.1806 74.3181 10.353C74.2873 10.5254 74.2104 10.624 74.0872 10.6485C73.8102 10.7101 73.5516 10.5808 73.3114 10.2607C73.0713 9.94049 72.825 9.54643 72.5726 9.07851C72.4064 9.07851 72.2093 9.29401 71.9815 9.72499C71.7599 10.1499 71.6029 10.4054 71.5105 10.4915C71.3381 10.2637 71.1503 9.9528 70.9472 9.55876C70.744 9.15852 70.5808 8.94609 70.4577 8.92151C70.1498 8.88455 69.8974 9.14008 69.7004 9.68805C69.5095 10.236 68.9523 10.51 68.0287 10.51H67.5485L67.2253 10.51C67.2129 10.4485 67.0683 9.81432 66.7912 8.60754C66.3664 7.43156 65.7229 6.84357 64.861 6.84357C64.233 6.84357 63.7158 7.26222 63.3094 8.09958C62.9092 8.93694 62.7091 9.59572 62.7091 10.076C62.7091 10.7471 62.9123 11.2827 63.3186 11.683C63.7312 12.077 64.4238 12.274 65.3966 12.274C65.3966 13.2407 64.9533 14.2289 64.0667 15.2386C63.1863 16.2484 62.2904 16.7533 61.3792 16.7533C61.2068 16.7411 60.9297 16.7318 60.548 16.7255C60.1601 16.7193 59.6798 16.6455 59.1072 16.5039C58.5346 16.3684 58.0144 15.7773 57.5464 14.7306C57.3063 13.998 57.1185 13.4346 56.9831 13.0405C56.8415 12.6526 56.6968 12.4218 56.549 12.3479L56.4659 12.9482C56.6198 14.2473 56.8138 15.1493 57.0477 15.6542C57.2817 16.1591 57.6018 16.6055 58.0082 16.9933C58.4084 17.3874 58.7594 17.6521 59.0611 17.7876C59.3628 17.9292 59.7845 18 60.3263 18C61.5885 18 62.6352 17.7599 63.4664 17.2796C64.2976 16.7994 64.981 16.1683 65.5167 15.3864C66.0523 14.6044 66.6095 13.5854 67.1883 12.3294H67.5485H68.1396H69.3956C69.4941 12.3048 69.6326 12.1601 69.8112 11.8953C69.9897 11.6306 70.1529 11.4982 70.3007 11.4982C70.4177 11.4982 70.6301 11.6583 70.9379 11.9785C71.2458 12.2986 71.4059 12.4587 71.4182 12.4587C71.7199 12.3356 71.9815 12.1601 72.2032 11.9323C72.4248 11.7045 72.5726 11.5598 72.6465 11.4982C72.7635 11.5844 72.9328 11.7784 73.1544 12.08ZM64.5192 9.42023C64.4084 9.51869 64.353 9.6449 64.353 9.79887C64.353 9.97127 64.433 10.1375 64.5931 10.2976C64.7594 10.4515 64.9687 10.5285 65.2211 10.5285C65.3258 10.5285 65.4182 10.5193 65.4982 10.5007C65.5782 10.4823 65.6183 10.393 65.6183 10.2329C65.6183 9.88812 65.5228 9.65108 65.332 9.52179C65.1473 9.38634 64.9841 9.3186 64.8425 9.3186C64.7317 9.3186 64.6239 9.35249 64.5192 9.42023ZM50.1394 10.5103V10.5418C50.2902 10.5329 50.4595 10.5132 50.6475 10.4826C50.9123 10.4395 51.2016 10.3687 51.5157 10.2702C51.2016 9.67911 50.9862 9.2758 50.8692 9.06032C50.7583 8.84482 50.7029 8.54005 50.7029 8.14601C50.7029 7.55493 50.9923 6.97925 51.5711 6.41896C52.156 5.85867 52.9256 5.57854 53.88 5.57854C55.0929 5.57854 55.6993 6.0834 55.6993 7.09315C55.6993 7.41948 55.5731 7.70271 55.3207 7.94283C55.0683 8.18295 54.7388 8.30301 54.3325 8.30301C54.0924 8.30301 53.8184 8.26297 53.5105 8.18291C53.2027 8.09674 52.941 7.96437 52.7255 7.78578V7.94275V8.12747C52.7255 8.39221 52.7655 8.69083 52.8456 9.02332C52.9318 9.34964 53.1996 9.65749 53.6491 9.94685C54.1047 10.2362 54.6249 10.3809 55.2099 10.3809C55.6224 10.3809 56.2196 10.3163 57.0015 10.187C57.7835 10.0515 58.3007 9.9838 58.5531 9.9838C58.9841 9.9838 59.3043 10.07 59.5136 10.2424C59.7291 10.4086 59.8369 10.7196 59.8369 11.1752C59.8369 11.5569 59.7383 11.8186 59.5413 11.9602C59.3504 12.0957 59.0703 12.1634 58.7009 12.1634C58.5039 12.1634 58.1837 12.1326 57.7404 12.071C57.2971 12.0034 57.0508 11.9695 57.0015 11.9695C55.844 11.9695 54.8035 12.0311 53.88 12.1542C52.9626 12.2712 52.4392 12.3297 52.3099 12.3297H50.1451L50.472 12.3479H50.1673H49.6408C49.0005 12.3479 48.4956 12.548 48.1262 12.9482C47.763 13.3545 47.1596 13.5577 46.3161 13.5577C46.3653 13.4038 46.5192 13.1975 46.7778 12.9389C47.0364 12.6803 47.1965 12.4833 47.2581 12.3479C47.1596 12.3356 47.0487 12.3294 46.9256 12.3294H46.6578C46.1898 12.3294 45.9005 12.3326 45.7896 12.3389C45.685 12.3452 45.5957 12.3606 45.5218 12.3851C45.0292 12.3112 44.5398 12.1295 44.0534 11.8402C43.567 11.5508 43.3237 10.8489 43.3237 9.73447C43.3237 8.70009 43.7209 7.95818 44.5151 7.50871C45.4387 7.25627 46.3653 7.00385 47.295 6.7514C47.3504 6.63441 47.3473 6.45586 47.2857 6.21574C47.2303 5.96945 47.1687 5.77243 47.101 5.62466C47.0333 5.4769 46.8393 5.3045 46.5192 5.10748C46.2052 4.9043 46.0482 4.70728 46.0482 4.5164C46.0482 4.03616 46.1744 3.73447 46.4268 3.61133C46.6793 3.48203 47.0025 3.41739 47.3965 3.41739C47.8337 3.41739 48.197 3.6021 48.4863 3.97151C48.7819 4.33478 48.9296 4.8181 48.9296 5.42149C48.9296 5.81554 48.9235 6.21266 48.9112 6.61287C48.905 7.00691 48.9019 7.41327 48.9019 7.83195V9.07875C48.9326 9.71907 48.985 10.1962 49.0589 10.5103H49.5762V10.51L49.5774 10.5103H50.1394ZM42.5941 2.02258C42.5941 1.64085 42.6957 1.39456 42.8989 1.28374C43.1083 1.17291 43.3576 1.11751 43.647 1.11751C43.961 1.11751 44.1796 1.16367 44.3027 1.25603C44.432 1.3484 44.5675 1.55157 44.7091 1.86557C44.8692 1.47769 45.0354 1.2068 45.2078 1.05287C45.3802 0.892792 45.6665 0.812729 46.0667 0.812729C46.3315 0.812729 46.5531 0.942047 46.7317 1.20064C46.9102 1.45923 46.9995 1.68086 46.9995 1.86557C46.9995 2.13034 46.8702 2.34892 46.6116 2.52132C46.353 2.69371 46.0698 2.77992 45.7619 2.77992C45.4849 2.77992 45.2848 2.71524 45.1616 2.58595C45.0323 2.41356 44.9307 2.27502 44.8568 2.17035C44.5059 2.61366 44.2442 2.87843 44.0718 2.96463C43.9056 3.04469 43.7147 3.08473 43.4992 3.08473C43.2714 3.08473 43.0621 2.9893 42.8712 2.79843C42.6865 2.60757 42.5941 2.34895 42.5941 2.02258ZM45.217 10.0205C45.217 10.1991 45.3155 10.3191 45.5126 10.3807C45.7096 10.4423 45.9528 10.4731 46.2422 10.4731C46.5316 10.4608 46.7193 10.4547 46.8055 10.4547C47.3474 10.4547 47.6183 10.2545 47.6183 9.85434L47.5813 9.5311L47.489 8.64449C47.489 8.41669 47.3504 8.30276 47.0734 8.30276C46.8456 8.30276 46.5777 8.3705 46.2699 8.50595C45.962 8.63525 45.7373 8.76146 45.5957 8.88461C45.4602 9.00159 45.3617 9.16167 45.3002 9.36485C45.2447 9.56187 45.217 9.78046 45.217 10.0205ZM20.6136 9.79887C20.6136 9.6449 20.6691 9.51869 20.7799 9.42023C20.8846 9.35249 20.9923 9.3186 21.1031 9.3186C21.2447 9.3186 21.4079 9.38634 21.5926 9.52179C21.7835 9.65108 21.8789 9.88812 21.8789 10.2329C21.8789 10.393 21.8389 10.4823 21.7589 10.5007C21.6788 10.5193 21.5865 10.5285 21.4818 10.5285C21.2294 10.5285 21.02 10.4515 20.8538 10.2976C20.6937 10.1375 20.6136 9.97127 20.6136 9.79887Z" fill="black"/>
</svg>

<svg xmlns="http://www.w3.org/2000/svg" width="94" height="18" fill="none"><path fill="#000" fill-rule="evenodd" d="M6.04 2.761c.154.173.256.42.305.74l.323 3.573c.025.29.05.61.074.96.025.352.037.641.037.869 0 .252-.012.514-.037.785-.025.27-.083.6-.176.988-.086.382-.24.776-.461 1.182-.216.4-.6.94-1.155 1.617 1.022-.29 1.841-.927 2.457-1.912.616-.991.923-1.752.923-2.281 0-.665-.089-1.635-.267-2.91-.173-1.274-.259-2.32-.259-3.14 0-.406.046-.778.139-1.117l.277-.96c.037-.191-.013-.432-.148-.72C7.942.144 7.715 0 7.388 0c-.443 0-.87.23-1.283.693-.407.455-.58.96-.518 1.514.154.191.305.376.453.554Zm31.327 8.968c.259-.948.388-1.902.388-2.863 0-.413-.031-.853-.093-1.32a59.272 59.272 0 0 0-.157-1.127 39.75 39.75 0 0 0-.268-1.598 12.512 12.512 0 0 1-.203-2.115 2.184 2.184 0 0 1 .028-.49 4.5 4.5 0 0 0 .046-.554c0-.394-.11-.75-.332-1.071-.216-.32-.437-.48-.665-.48-.351 0-.696.16-1.035.48-.332.32-.498.708-.498 1.164 0 .468.184 1.01.554 1.625.375.61.59 1.047.646 1.312.056.264.139.643.25 1.136.117.486.175 1.046.175 1.68 0 .53-.015 1.1-.046 1.709-.03.61-.065 1.167-.102 1.672a9.55 9.55 0 0 0-.369-.231.82.82 0 0 0-.462-.148h-1.173a22.287 22.287 0 0 1-1.754-.23c-.61-.112-1.106-.321-1.487-.629-.382-.308-.936-.96-1.663-1.958-.726-.997-1.613-1.496-2.66-1.496-.554 0-1.022.12-1.403.36-.376.24-.564.625-.564 1.155 0 .357.068.674.204.95.141.278.446.417.914.417a.87.87 0 0 0 .61-.25c.184-.166.341-.305.47-.415.413.178.828.354 1.247.526.53.265.794.72.794 1.367-.646.061-1.317.114-2.013.157-.69.043-1.413.064-2.17.064l-.176-.004v-.014h-.914a298.43 298.43 0 0 0-.434-1.902c-.425-1.176-1.068-1.764-1.93-1.764-.628 0-1.146.418-1.552 1.256-.4.837-.6 1.496-.6 1.976 0 .671.203 1.207.61 1.607.412.394 1.104.591 2.077.591 0 .967-.443 1.955-1.33 2.965-.88 1.01-1.776 1.514-2.687 1.514-.173-.012-.45-.021-.831-.027-.388-.007-.869-.08-1.441-.222-.57-.135-1.087-.72-1.553-1.756.287-.398.59-.878.906-1.44.647-1.133.97-2.191.97-3.177 0-.93-.215-1.739-.646-2.429-.425-.695-.93-1.043-1.515-1.043-.726 0-1.09.465-1.09 1.394 0 .58.293.989.878 1.229.585.24.883.421.895.545.013.117.019.264.019.443 0 1.014-.318 1.97-.954 2.87l-.034-.1c-.142-.387-.287-.618-.434-.692l-.084.6c.034.28.069.542.106.785-.52.656-.995 1.13-1.426 1.422-.536.37-1.2.656-1.995.86-.794.203-1.625.304-2.494.304-1.625 0-2.952-.35-3.98-1.053-1.028-.702-1.909-1.656-2.641-2.863L0 12.163c.185 1.533 1.04 2.814 2.567 3.842 1.527 1.028 3.128 1.543 4.803 1.543 1.157 0 2.198-.173 3.122-.518a9.816 9.816 0 0 0 2.493-1.32c.08-.073.162-.154.245-.242.026.067.052.13.078.186.234.505.555.951.96 1.34.401.393.752.658 1.054.794.301.141.723.212 1.265.212 1.262 0 2.309-.24 3.14-.72a6.229 6.229 0 0 0 2.05-1.894c.536-.782 1.093-1.8 1.672-3.057H24.4v-.015l.12-.003c.616 0 1.293-.024 2.032-.074.739-.05 1.998-.074 3.777-.074.591 0 1.238.028 1.94.083.708.056 1.102.083 1.182.083H34.763c.166 0 .372.136.618.407.246.27.419.406.517.406.72 0 1.21-.47 1.469-1.413Zm56.152 0c.258-.948.388-1.902.388-2.863 0-.413-.031-.853-.093-1.32a58.336 58.336 0 0 0-.157-1.127 39.69 39.69 0 0 0-.268-1.598 12.513 12.513 0 0 1-.203-2.115 2.186 2.186 0 0 1 .028-.49c.03-.234.046-.418.046-.554 0-.394-.11-.75-.332-1.071-.216-.32-.438-.48-.665-.48-.351 0-.696.16-1.035.48-.332.32-.498.708-.498 1.164 0 .468.184 1.01.554 1.625.375.61.59 1.047.646 1.312.056.264.139.643.25 1.136.117.486.175 1.046.175 1.68 0 .53-.015 1.1-.046 1.709-.03.61-.065 1.167-.102 1.672a9.628 9.628 0 0 0-.37-.231.82.82 0 0 0-.46-.148h-2.374c-.117 0-.364-.345-.74-1.034-.375-.696-.966-1.044-1.773-1.044-.572 0-1.012.212-1.32.637a4.773 4.773 0 0 0-.711 1.441h-1.977a298.43 298.43 0 0 0-.434-1.902c-.425-1.176-1.068-1.764-1.93-1.764-.628 0-1.145.418-1.552 1.256-.4.837-.6 1.496-.6 1.976 0 .671.203 1.207.61 1.607.412.394 1.105.591 2.078.591 0 .967-.444 1.955-1.33 2.965-.88 1.01-1.776 1.514-2.688 1.514-.172-.012-.45-.021-.831-.027-.388-.007-.868-.08-1.44-.222-.573-.136-1.094-.727-1.561-1.773a132.33 132.33 0 0 0-.564-1.69c-.141-.388-.286-.62-.434-.693l-.083.6c.154 1.3.348 2.201.582 2.706.234.505.554.951.96 1.34.4.393.751.658 1.053.794.302.141.724.212 1.265.212 1.263 0 2.31-.24 3.14-.72a6.228 6.228 0 0 0 2.05-1.894c.536-.782 1.094-1.8 1.672-3.057h.952v-.018h.849c.154 0 .259.006.314.018.074 0 .284.268.628.804.351.536.884.803 1.598.803.647 0 1.136-.267 1.468-.803.333-.536.582-.804.749-.804h1.911c.167 0 .373.136.62.407.245.27.418.406.516.406.72 0 1.21-.47 1.469-1.413Zm-6.807.453c-.35 0-.572-.265-.665-.795a1.711 1.711 0 0 1-.037-.286c0-.24.046-.446.139-.619.098-.178.23-.268.397-.268.215 0 .375.096.48.287.105.184.17.41.194.674 0 .302-.03.545-.092.73-.062.184-.2.277-.416.277ZM79.776 9.42a.484.484 0 0 0-.166.379c0 .172.08.338.24.499.166.153.376.23.628.23.105 0 .197-.009.277-.027.08-.019.12-.108.12-.268 0-.345-.095-.582-.286-.711-.185-.136-.348-.203-.49-.203a.588.588 0 0 0-.323.101Zm-6.622 2.66c.228.302.407.44.536.416.831-.148 1.385-.477 1.663-.988a3.24 3.24 0 0 0 .415-1.561 2.35 2.35 0 0 0-.018-.268c0-.53-.21-1.105-.628-1.727-.413-.622-.74-.933-.98-.933-.381 0-.714.154-.997.462-.283.308-.425.588-.425.84 0 .204.102.407.305.61.203.197.431.295.684.295.301 0 .483.019.544.056.062.037.093.15.093.341a.332.332 0 0 1 .028.148v.194c0 .086-.019.216-.056.388-.03.172-.108.271-.23.296-.278.061-.536-.068-.777-.388a9.512 9.512 0 0 1-.738-1.182c-.167 0-.364.215-.591.646-.222.425-.38.68-.472.767a6.567 6.567 0 0 1-.563-.933c-.203-.4-.366-.613-.49-.637-.307-.037-.56.218-.757.766-.19.548-.748.822-1.671.822h-.804c-.012-.062-.157-.696-.434-1.902-.425-1.176-1.068-1.764-1.93-1.764-.628 0-1.145.418-1.552 1.256-.4.837-.6 1.496-.6 1.976 0 .671.203 1.207.61 1.607.412.394 1.105.591 2.078.591 0 .967-.444 1.955-1.33 2.965-.88 1.01-1.777 1.514-2.688 1.514a17.25 17.25 0 0 0-.831-.027c-.388-.007-.868-.08-1.44-.222-.573-.136-1.094-.727-1.562-1.773-.24-.733-.428-1.296-.563-1.69-.141-.388-.286-.62-.434-.693l-.083.6c.154 1.3.348 2.201.582 2.706.234.505.554.951.96 1.34.4.393.751.658 1.053.794.302.141.724.212 1.265.212 1.263 0 2.31-.24 3.14-.72a6.229 6.229 0 0 0 2.05-1.894c.536-.782 1.093-1.8 1.672-3.057h2.208c.098-.024.237-.169.415-.434.179-.264.342-.397.49-.397.117 0 .33.16.637.48.308.32.468.48.48.48.302-.122.563-.298.785-.526.222-.228.37-.372.444-.434.116.086.286.28.507.582ZM64.52 9.42a.484.484 0 0 0-.166.379c0 .172.08.338.24.499.166.153.376.23.628.23.105 0 .197-.009.277-.027.08-.019.12-.108.12-.268 0-.345-.095-.582-.286-.711-.185-.136-.348-.203-.49-.203a.588.588 0 0 0-.323.101Zm-14.38 1.09v.032c.151-.01.32-.029.508-.06.265-.042.555-.113.869-.212-.314-.59-.53-.994-.647-1.21-.11-.215-.166-.52-.166-.914 0-.591.29-1.167.868-1.727.585-.56 1.355-.84 2.309-.84 1.213 0 1.82.504 1.82 1.514 0 .326-.127.61-.38.85-.252.24-.581.36-.987.36-.24 0-.515-.04-.822-.12a2.1 2.1 0 0 1-.786-.397V8.127c0 .265.04.564.12.896.087.327.355.634.804.924.456.29.976.434 1.56.434.413 0 1.01-.065 1.792-.194.782-.135 1.3-.203 1.552-.203.431 0 .751.086.96.258.216.167.324.478.324.933 0 .382-.099.644-.296.785-.19.136-.47.203-.84.203a7.92 7.92 0 0 1-.96-.092 11.65 11.65 0 0 0-.74-.101c-1.157 0-2.197.061-3.121.184-.917.117-1.44.176-1.57.176h-2.165l.327.018h-.831c-.64 0-1.145.2-1.515.6-.363.406-.966.61-1.81.61.05-.154.203-.36.462-.62.258-.258.419-.455.48-.59a2.703 2.703 0 0 0-.332-.019h-.268c-.468 0-.758.004-.868.01a1.062 1.062 0 0 0-.268.046 4.04 4.04 0 0 1-1.469-.545c-.486-.29-.73-.991-.73-2.106 0-1.034.398-1.776 1.192-2.225.924-.253 1.85-.505 2.78-.758.055-.117.052-.295-.01-.535a3.079 3.079 0 0 0-.184-.591c-.068-.148-.262-.32-.582-.518-.314-.203-.47-.4-.47-.59 0-.48.125-.783.378-.906.252-.129.575-.194.97-.194.437 0 .8.185 1.09.555.295.363.443.846.443 1.45 0 .394-.007.79-.019 1.19-.006.395-.01.801-.01 1.22v1.247c.032.64.084 1.117.158 1.431h1.08Zm-7.545-8.487c0-.382.102-.628.305-.74.21-.11.459-.165.748-.165.314 0 .533.046.656.138.129.092.265.296.406.61.16-.388.326-.66.499-.813.172-.16.459-.24.859-.24.264 0 .486.129.665.388.178.258.267.48.267.665 0 .264-.129.483-.387.655a1.5 1.5 0 0 1-.85.259c-.277 0-.477-.065-.6-.194-.13-.172-.231-.311-.305-.416-.351.444-.613.708-.785.795-.166.08-.357.12-.573.12-.228 0-.437-.096-.628-.287-.184-.19-.277-.45-.277-.775Zm2.623 7.998c0 .178.099.298.296.36.197.061.44.092.73.092.289-.012.476-.018.563-.018.541 0 .812-.2.812-.6l-.037-.324-.092-.887c0-.227-.139-.341-.416-.341-.227 0-.495.067-.803.203-.308.13-.533.255-.674.379a.998.998 0 0 0-.296.48 2.415 2.415 0 0 0-.083.655Zm-24.603-.222c0-.154.055-.28.166-.379a.588.588 0 0 1 .323-.101c.142 0 .305.067.49.203.19.13.286.366.286.71 0 .161-.04.25-.12.269-.08.018-.172.027-.277.027a.889.889 0 0 1-.628-.23c-.16-.16-.24-.327-.24-.5Z" clip-rule="evenodd"/></svg>
